mediabuilder/img/social/tiktok.svg

<svg width="37" height="36" viewBox="0 0 37 36" fill="none" xmlns="http://www.w3.org/2000/svg">
<path d="M18.1643 3.17401C19.7069 3.15015 21.2406 3.16429 22.7725 3.15015C22.8653 4.95434 23.5142 6.79212 24.8348 8.06769C26.1528 9.37509 28.0171 9.97354 29.831 10.176V14.922C28.1311 14.8663 26.4233 14.5127 24.8808 13.7808C24.209 13.4767 23.5831 13.0851 22.9705 12.6847C22.9626 16.1286 22.9847 19.5682 22.9484 22.998C22.8565 24.6457 22.3128 26.2855 21.3546 27.6433C19.813 29.9036 17.1372 31.3772 14.3889 31.4231C12.7032 31.5195 11.0192 31.0598 9.58273 30.213C7.20219 28.8092 5.52706 26.2395 5.28309 23.4815C5.25236 22.8974 5.24764 22.3123 5.26894 21.7277C5.4811 19.4851 6.59048 17.3397 8.31246 15.8802C10.2643 14.1804 12.9984 13.3706 15.5584 13.8498C15.5823 15.5956 15.5124 17.3397 15.5124 19.0855C14.3429 18.7072 12.9763 18.8133 11.9544 19.5231C11.2068 20.0156 10.6418 20.7402 10.3465 21.5854C10.1025 22.183 10.1723 22.8468 10.1865 23.4815C10.4667 25.4157 12.3266 27.0413 14.312 26.8654C15.6282 26.8512 16.8897 26.0875 17.5756 24.9693C17.7975 24.5777 18.0459 24.1772 18.0592 23.7167C18.175 21.6084 18.129 19.509 18.1431 17.4007C18.1529 12.6493 18.129 7.91123 18.1652 3.1749L18.1643 3.17401Z" fill="#00F7EF"/>
<path d="M19.5784 4.58832C21.1209 4.56445 22.6546 4.5786 24.1866 4.56445C24.2794 6.36864 24.9282 8.20642 26.2489 9.482C27.5669 10.7894 29.4312 11.3878 31.2451 11.5903V16.3363C29.5452 16.2806 27.8374 15.927 26.2948 15.1951C25.623 14.891 24.9972 14.4994 24.3846 14.099C24.3766 17.543 24.3987 20.9825 24.3625 24.4123C24.2705 26.06 23.7269 27.6998 22.7687 29.0576C21.227 31.3179 18.5512 32.7915 15.803 32.8375C14.1172 32.9338 12.4333 32.4741 10.9968 31.6273C8.61626 30.2236 6.94113 27.6538 6.69715 24.8958C6.66642 24.3117 6.6617 23.7266 6.68301 23.142C6.89516 20.8994 8.00455 18.754 9.72653 17.2946C11.6783 15.5947 14.4125 14.785 16.9725 15.2641C16.9963 17.0099 16.9265 18.754 16.9265 20.4998C15.757 20.1215 14.3904 20.2276 13.3685 20.9374C12.6209 21.4299 12.0559 22.1546 11.7605 22.9997C11.5166 23.5973 11.5864 24.2612 11.6006 24.8958C11.8808 26.83 13.7407 28.4556 15.7261 28.2797C17.0423 28.2656 18.3037 27.5018 18.9897 26.3836C19.2116 25.992 19.46 25.5915 19.4732 25.131C19.589 23.0227 19.5431 20.9233 19.5572 18.815C19.5669 14.0636 19.5431 9.32553 19.5793 4.5892L19.5784 4.58832Z" fill="#FC0150"/>
<path fill-rule="evenodd" clip-rule="evenodd" d="M15.5612 15.1282C15.5572 15.702 15.5474 16.2758 15.5376 16.8495C15.5249 17.5947 15.5122 18.34 15.5122 19.0856C14.3427 18.7072 12.976 18.8133 11.9542 19.5231C11.2065 20.0156 10.6416 20.7403 10.3462 21.5854C10.1387 22.0938 10.1582 22.6501 10.1774 23.1957C10.1808 23.2914 10.1841 23.3868 10.1862 23.4816C10.3567 24.6583 11.1119 25.7208 12.1243 26.3329C12.8694 27.5615 14.2637 28.4093 15.7261 28.2798C17.0423 28.2656 18.3037 27.5019 18.9897 26.3836C19.0061 26.3547 19.0226 26.3258 19.0392 26.2967C19.247 25.9326 19.4609 25.5576 19.4732 25.131C19.5576 23.594 19.5561 22.0616 19.5545 20.5271C19.5539 19.9568 19.5534 19.3863 19.5572 18.8151C19.5607 17.1115 19.5599 15.4096 19.559 13.709C19.5575 10.6663 19.556 7.62743 19.5793 4.58927L19.5784 4.58838C20.4626 4.5747 21.344 4.57351 22.2237 4.57232C22.4703 4.57199 22.7168 4.57165 22.9632 4.57104C23.2532 5.88293 23.8615 7.12792 24.8345 8.06772C25.0585 8.28984 25.2982 8.4915 25.5507 8.67423C25.7583 8.96201 25.9908 9.23277 26.2489 9.48206C27.2243 10.4496 28.4988 11.0289 29.8308 11.3467V14.9221C28.1309 14.8664 26.423 14.5128 24.8805 13.7808C24.2087 13.4768 23.5828 13.0852 22.9702 12.6847C22.9675 13.8558 22.9683 15.0264 22.9691 16.1963C22.9706 18.4668 22.9721 20.7345 22.9481 22.998C22.8562 24.6458 22.3126 26.2855 21.3543 27.6433C19.8127 29.9036 17.1369 31.3772 14.3886 31.4232C12.7029 31.5195 11.0189 31.0599 9.58247 30.213C9.23678 30.0092 8.90597 29.7808 8.59226 29.5307C7.53416 28.2067 6.84672 26.5867 6.69715 24.8959C6.66642 24.3118 6.6617 23.7266 6.68301 23.1421C6.89516 20.8995 8.00455 18.7541 9.72653 17.2946C11.3226 15.9045 13.4419 15.1097 15.5612 15.1282Z" fill="black"/>
</svg>

<svg width="37" height="36" fill="none" xmlns="http://www.w3.org/2000/svg"><path d="M18.164 3.174c1.543-.024 3.077-.01 4.608-.024.093 1.804.742 3.642 2.063 4.918 1.318 1.307 3.182 1.906 4.996 2.108v4.746c-1.7-.056-3.408-.41-4.95-1.141-.672-.304-1.298-.696-1.91-1.096-.008 3.444.014 6.883-.023 10.313-.091 1.648-.635 3.287-1.593 4.645-1.542 2.26-4.218 3.734-6.966 3.78-1.686.097-3.37-.363-4.806-1.21-2.38-1.404-4.056-3.974-4.3-6.732a20.097 20.097 0 01-.014-1.753 8.836 8.836 0 013.043-5.848c1.952-1.7 4.686-2.51 7.246-2.03.024 1.746-.046 3.49-.046 5.236-1.17-.379-2.536-.273-3.558.437a4.082 4.082 0 00-1.607 2.062c-.245.598-.175 1.262-.16 1.896.28 1.935 2.14 3.56 4.125 3.384 1.316-.014 2.578-.777 3.264-1.896.221-.391.47-.792.483-1.252.116-2.109.07-4.208.084-6.316.01-4.752-.014-9.49.022-14.226v-.001z" fill="#00F7EF"/><path d="M19.578 4.588c1.543-.024 3.077-.01 4.609-.024.092 1.805.741 3.642 2.062 4.918 1.318 1.307 3.182 1.906 4.996 2.108v4.746c-1.7-.055-3.408-.409-4.95-1.14-.672-.305-1.298-.697-1.91-1.097-.008 3.444.014 6.884-.023 10.313-.091 1.648-.635 3.288-1.593 4.646-1.542 2.26-4.218 3.733-6.966 3.78-1.686.096-3.37-.364-4.806-1.21-2.38-1.404-4.056-3.974-4.3-6.732a20.12 20.12 0 01-.014-1.754 8.835 8.835 0 013.044-5.847c1.951-1.7 4.685-2.51 7.245-2.03.024 1.745-.046 3.489-.046 5.235-1.169-.378-2.536-.272-3.557.437A4.083 4.083 0 0011.76 23c-.244.597-.175 1.261-.16 1.896.28 1.934 2.14 3.56 4.125 3.384 1.316-.014 2.578-.778 3.264-1.896.222-.392.47-.793.483-1.253.116-2.108.07-4.208.084-6.316.01-4.751-.014-9.49.022-14.226z" fill="#FC0150"/><path fill-rule="evenodd" clip-rule="evenodd" d="M15.561 15.128c-.004.574-.014 1.148-.023 1.721-.013.746-.026 1.491-.026 2.237-1.17-.379-2.536-.273-3.558.437a4.082 4.082 0 00-1.608 2.062c-.207.509-.188 1.065-.169 1.61l.01.287c.17 1.176.925 2.239 1.937 2.85.745 1.23 2.14 2.077 3.602 1.948 1.316-.014 2.578-.778 3.264-1.896.016-.03.033-.058.05-.087.207-.364.42-.74.433-1.166.085-1.537.083-3.07.082-4.604-.001-.57-.002-1.14.002-1.712.004-1.704.003-3.405.002-5.106-.002-3.043-.003-6.082.02-9.12.884-.014 1.765-.015 2.645-.017l.74-.001c.29 1.312.898 2.557 1.87 3.497.224.222.464.424.717.606.207.288.44.559.698.808.975.968 2.25 1.547 3.582 1.865v3.575c-1.7-.056-3.408-.41-4.95-1.141-.672-.304-1.298-.696-1.91-1.096a1174.54 1174.54 0 00-.002 3.511c.002 2.27.003 4.538-.02 6.802-.093 1.648-.636 3.287-1.595 4.645-1.541 2.26-4.217 3.734-6.965 3.78-1.686.097-3.37-.363-4.807-1.21a8.577 8.577 0 01-.99-.682c-1.058-1.324-1.745-2.944-1.895-4.635a20.12 20.12 0 01-.014-1.754 8.836 8.836 0 013.044-5.847 8.875 8.875 0 015.834-2.167z" fill="#000"/></svg>
